vsi/text-size_light.svg

<svg viewBox="0 0 16 16" fill="none" xmlns="http://www.w3.org/2000/svg" height="1em" width="1em">
  <path d="M3.36023 7L1.00024 13H2.34027L2.85022 11.53H5.11023L5.64026 13H7.00024L4.65027 7H3.36023ZM3.21027 10.53L3.99023 8.39001L4.77026 10.53H3.21027Z" fill="#424242"/>
  <path d="M11.8203 4H10.2202L7.00024 13H8.56024L9.31024 10.71H12.6702L13.4402 13H15.0002L11.8203 4ZM9.67023 9.5L10.8502 5.91003C10.9092 5.72454 10.9494 5.53351 10.9702 5.33997C10.9972 5.53171 11.034 5.72202 11.0803 5.91003L12.3303 9.5H9.67023Z" fill="#424242"/>
</svg>

<svg viewBox="0 0 16 16" fill="none" xmlns="http://www.w3.org/2000/svg" height="1em" width="1em">
  <path d="M3.36 7 1 13h1.34l.51-1.47h2.26L5.64 13H7L4.65 7H3.36Zm-.15 3.53.78-2.14.78 2.14H3.21ZM11.82 4h-1.6L7 13h1.56l.75-2.29h3.36l.77 2.29H15l-3.18-9ZM9.67 9.5l1.18-3.59c.06-.185.1-.376.12-.57.027.192.064.382.11.57l1.25 3.59H9.67Z" fill="#424242"/>
</svg>
